icons/op-team-planner-24.svg

<svg width="24" height="24" viewBox="0 0 24 24" fill="none" xmlns="http://www.w3.org/2000/svg">
<path d="M6.66667 6C6.11459 6 5.66705 6.46992 5.66705 7.0496C5.66705 7.62928 6.11459 8.0992 6.66667 8.0992H10.496C10.9032 7.79073 11.4212 7.6 12.0011 7.6C12.5811 7.6 13.0991 7.79073 13.5063 8.0992H16.3902C16.9423 8.0992 17.3899 7.62928 17.3899 7.0496C17.3899 6.46992 16.9423 6 16.3902 6H6.66667Z" fill="black"/>
<path d="M7.85827 9.31659H9.6521C9.61419 9.44982 9.58903 9.58657 9.57774 9.7252C9.55691 9.91193 9.57276 10.1179 9.58642 10.265C9.59006 10.3042 9.59419 10.345 9.59867 10.3869C9.51567 10.5196 9.47103 10.651 9.44596 10.738C9.37413 10.9873 9.35979 11.2502 9.35979 11.3906V11.4158H7.85827C7.3062 11.4158 6.85865 10.9459 6.85865 10.3662C6.85865 9.78651 7.3062 9.31659 7.85827 9.31659Z" fill="black"/>
<path d="M4.99962 12.6332H9.92839C9.98622 12.8188 10.0541 12.9752 10.1238 13.1054C10.1468 13.1483 10.1698 13.1879 10.1925 13.2246V13.2743C10.0476 13.3434 9.85593 13.4328 9.60592 13.546C9.41293 13.6334 9.21848 13.7142 9.02021 13.7967L9.01147 13.8003C8.815 13.882 8.61039 13.9672 8.42176 14.0548C8.23435 14.1418 8.03941 14.2418 7.86404 14.3597C7.72718 14.4517 7.5749 14.5726 7.44455 14.7324H4.99962C4.44755 14.7324 4 14.2625 4 13.6828C4 13.1031 4.44754 12.6332 4.99962 12.6332Z" fill="black"/>
<path d="M9.30508 14.5387C9.14601 14.6048 8.99248 14.6687 8.849 14.7324C8.44837 14.9103 8.12613 15.0873 7.98056 15.311C7.76645 15.688 7.81403 18 7.81403 18H16.1883C16.1883 18 16.2358 15.688 16.0217 15.311C15.824 15.0072 15.3004 14.7895 14.6972 14.5387C14.5019 14.4575 14.2983 14.3728 14.0947 14.2806C13.262 13.9037 13.0479 13.778 13.0479 13.778V12.9487C13.0479 12.9487 13.3572 12.6974 13.4524 11.8932C13.6427 11.9435 13.8568 11.5916 13.8806 11.3906C13.8806 11.1895 13.833 10.6869 13.5951 10.7372C13.6002 10.6941 13.6053 10.6517 13.6103 10.6099C13.652 10.2618 13.6877 9.96441 13.6665 9.80733C13.6189 9.1288 12.9765 8.4 12.0011 8.4C11.2493 8.4 10.6953 8.83301 10.4591 9.34224C10.3889 9.49366 10.3467 9.65181 10.3358 9.80733C10.331 9.84285 10.3291 9.88555 10.3295 9.93438C10.331 10.1015 10.3597 10.3405 10.392 10.6099L10.4072 10.7372C10.3709 10.7295 10.3391 10.7347 10.3112 10.7497C10.1559 10.8331 10.1217 11.2202 10.1217 11.3906C10.1455 11.5916 10.3358 11.9435 10.5499 11.8932C10.5905 12.2254 10.67 12.4662 10.7479 12.6332C10.8518 12.856 10.9528 12.9473 10.9543 12.9487L10.9544 13.778C10.9544 13.778 10.941 13.7859 10.9079 13.8035C10.8086 13.8565 10.5321 13.9979 9.90758 14.2806C9.89486 14.2864 9.88213 14.2921 9.86941 14.2978C9.67856 14.3834 9.48814 14.4626 9.30508 14.5387Z" fill="black"/>
<path d="M19.7385 15.3927C19.7723 15.4535 19.8081 15.5179 19.852 15.5874C20.0423 15.9141 19.9947 18 19.9947 18H17.2112C17.2826 15.0597 16.9971 14.5571 16.8782 14.3812C16.7681 14.1922 16.4191 14.1545 16.0755 14.1175C15.825 14.0905 15.5774 14.0638 15.427 13.9791L16.0455 13.4513C16.0455 13.4513 15.76 13.2251 15.6887 12.5215C15.4983 12.5717 15.3318 12.245 15.308 12.0691C15.308 11.8932 15.3318 11.4157 15.5459 11.466C15.4983 11.1141 15.4745 10.8126 15.4983 10.6366C15.5459 10.0335 16.1169 9.38011 16.9971 9.38011C17.8774 9.38011 18.4483 10.0335 18.4959 10.6366C18.517 10.7926 18.482 11.0475 18.4406 11.3485C18.4353 11.3869 18.4299 11.4261 18.4245 11.466C18.6387 11.4157 18.6862 11.8932 18.6625 12.0691C18.6625 12.245 18.4721 12.5717 18.3056 12.5215C18.2104 13.2251 17.9249 13.4513 17.9249 13.4513L17.9487 14.2052C17.9487 14.2052 18.1153 14.3309 18.8766 14.6576C19.4781 14.9241 19.589 15.1236 19.7385 15.3927Z" fill="black"/>
<path d="M9.30508 14.5387C9.30508 14.5387 9.30509 14.5387 9.30508 14.5387V14.5387Z" fill="black"/>
</svg>

<svg xmlns="http://www.w3.org/2000/svg" width="24" height="24" viewBox="0 0 24 24"><path d="M6.667 6c-.552 0-1 .47-1 1.05 0 .579.448 1.049 1 1.049h3.829a2.48 2.48 0 0 1 1.505-.499c.58 0 1.098.191 1.505.499h2.884c.552 0 1-.47 1-1.049 0-.58-.448-1.05-1-1.05H6.667Zm1.191 3.317h1.794c-.038.133-.063.27-.074.408-.021.187-.005.393.008.54l.013.122a1.389 1.389 0 0 0-.153.351 2.491 2.491 0 0 0-.086.653v.025H7.858c-.552 0-.999-.47-.999-1.05 0-.579.447-1.049.999-1.049ZM5 12.633h4.928a2.668 2.668 0 0 0 .265.592v.049c-.145.069-.337.159-.587.272-.193.087-.388.168-.586.251l-.009.003c-.196.082-.401.167-.589.255a4.038 4.038 0 0 0-.558.305 1.916 1.916 0 0 0-.419.372H5c-.552 0-1-.47-1-1.049 0-.58.448-1.05 1-1.05Z"/><path d="M9.305 14.539c-.159.066-.313.13-.456.193-.401.178-.723.355-.868.579-.215.377-.167 2.689-.167 2.689h8.374s.048-2.312-.166-2.689c-.198-.304-.722-.521-1.325-.772-.195-.082-.399-.166-.602-.258-.833-.377-1.047-.503-1.047-.503v-.829s.309-.252.404-1.056c.191.051.405-.301.429-.502 0-.201-.048-.704-.286-.654l.015-.127c.042-.348.078-.646.056-.803-.047-.678-.69-1.407-1.665-1.407-.752 0-1.306.433-1.542.942-.07.152-.112.31-.123.465a.95.95 0 0 0-.007.127c.002.167.031.407.063.676l.015.127a.135.135 0 0 0-.096.013c-.155.083-.189.47-.189.641.024.201.214.553.428.502.041.332.12.573.198.74.104.223.205.314.206.316v.829l-.046.025a17.58 17.58 0 0 1-1.039.495c-.19.085-.381.165-.564.241Z"/><path d="M19.738 15.393c.034.061.07.125.114.194.19.327.143 2.413.143 2.413h-2.784c.072-2.94-.214-3.443-.333-3.619-.11-.189-.459-.226-.802-.264-.251-.026-.499-.053-.649-.138l.619-.528s-.286-.226-.357-.93c-.191.051-.357-.276-.381-.452 0-.176.024-.653.238-.603-.048-.352-.071-.653-.048-.829.048-.603.619-1.257 1.499-1.257.88 0 1.451.654 1.499 1.257.021.156-.014.41-.055.711l-.017.118c.215-.05.262.427.239.603 0 .176-.191.503-.357.452-.096.704-.381.93-.381.93l.024.754s.166.126.928.453c.601.266.712.466.861.735Z"/></svg>
